X: 123
T: Better Day better deed
%%VWML:Wrights-3753-p62-0
F: http://www.vwml.org/record/Wrights/3753/p62
%R: jig
B: Daniel Wright "Wright's Compleat Collection of Celebrated Country Dances" 1740 p.62
S: http://library.efdss.org/cgi-bin/dancebooks.cgi
Z: 2014 John Chambers <jc:trillian.mit.edu>
N: The 2nd strain has initial repeat but no final repeat; fixed to fit the dance.
N: The spelling "with in _side" is a bit unusual.
M: 6/8
L: 1/8
K: D %------------------------- a2b |\
agf efg | fed ABc | def gaf | e3 a2b |\
agf efg | fed Adc | def edc | d3 :|
|: D2G |\
FED GAB | AFD D2G | FED def | e3 E2G |\ FED GAB | AGF GAB | ABc dec | d3 :| %------------------------- %%begintext align
%% The 1st Man go with in _side of the 2d Man,
%% then go round about him, and stand below the 3d %% Man .| then the 1st Wo. do the same :| the 1st
%% Cu. being below the 3d Cu. cross over a
%% bove the 3d Cu. and so above the 2d Cu. into
%% their own Places .| the 1st Man take hands
%% with his partner, and lead down the 2d Cu. then %% lead up again into yovr [sic] own places & cast off :| %%endtext
%-------------------------
%%sep 2 4 300
T: Dirlenton Green
T: Longways for as many.
%R: reel
B: Daniel Wright "Wright's Compleat Collection of Celebrated Country Dances" 1740 p.62
S: http://library.efdss.org/cgi-bin/dancebooks.cgi
Z: 2014 John Chambers <jc:trillian.mit.edu>
N: The 2nd strain has initial repeat but no final repeat; fixed to fit the dance.
M: C
L: 1/8
K: D
%-------------------------
e |\
fd dA F>G AB | =c/c/c cG EG eg |\
fd dA EG Bg | fa ef d/d/d d :|
|: e |\
defg abaf | ge=cg ecge |\
defg abaf | ge=ce d/d/d d :|
%-------------------------
%%begintext align
%% Cross over behind the 2d Cu. then the 1st Man
%% and 2d Wo. lead thro' the 2d Cu. and cast of
%% into their Places .| Then the 2d Man and 2d
%% Wo. do the same :| the 1st Man ?and 1st Wo.
%% take both hands, and slide down the Middle
%% and foot it, then slide up the Middle and foot
%% it, then cast off, and go the whole Figure
%% with the 2d Cu. :|
%%endtext
%-------------------------
%%sep 2 4 300
